!!!!SEGMENT: pl-wtm--r-110-n_noskowski-zygmunt--majeste-les-francais.krn
!!!cenid: 18xx:2293
!!!COM: Noskowski, Zygmunt
!!!COM-rismid: pe106604
!!!CDT: 1846/05/02-1909/07/23
!!!CNT: Polish
!!!OTL: Majeste les Francais
!!!PDT:
!!!AGN: Secular
!!!SMS-siglum: PL-Wtm
!!!SMS-shelfmark: R 110/N
!!!SMS-shelfwork: W
!!!SMS-variant:
!!!SMS-altvar:
!!!NIFC-rismid: 1001101669
!!!OMD: Moderato maestoso
!!!system-decoration: {(s1,s2,s3)}
!!!key:
**kern	**kern	**dynam	**kern	**text	**text	**text	**text
*part2	*part2	*part2	*part1	*part1	*part1	*part1	*part1
*staff3	*staff2	*	*staff1	*staff1	*staff1	*staff1	*staff1
*Iempty	*Iforte	*	*Ivox	*	*	*	*
*	*I"[Fortepian]	*	*I"[Voce]	*	*	*	*
*	*I'[pf]	*	*I'[V]	*	*	*	*
*clefF4	*clefG2	*	*clefG2	*	*	*	*
*k[b-e-a-d-]	*k[b-e-a-d-]	*	*k[b-e-a-d-]	*	*	*	*
*A-:	*A-:	*	*A-:	*	*	*	*
*M4/4	*M4/4	*	*M4/4	*	*	*	*
*met(c)	*met(c)	*	*met(c)	*	*	*	*
*>[A,B,B,A,B,B,A,B,B]	*>[A,B,B,A,B,B,A,B,B]	*	*>[A,B,B,A,B,B,A,B,B]	*	*	*	*
=1	=1	=1	=1	=1	=1	=1	=1
*>A	*>A	*	*>A	*	*	*	*
!	!	!LO:DY:b:rj	!	!	!	!	!
2E-^^>\	2ee- 2e-^^>/	f	1r	.	.	.	.
4C 4CC^^>/	4e- 4c 4G^^>/	.	.	.	.	.	.
8.E-\L	8.ee-L 8.e-/	.	.	.	.	.	.
16E-\Jk	16ee-Jk 16e-/	.	.	.	.	.	.
=2	=2	=2	=2	=2	=2	=2	=2
2E-^^>\	2ee- 2e-^^>/	.	1r	.	.	.	.
4AA- 4AAA-^^>/	4e- 4c 4G^^>/	.	.	.	.	.	.
8.E-\L	8.ee-L 8.e-/	.	.	.	.	.	.
16E-\Jk	16ee-Jk 16e-/	.	.	.	.	.	.
=3	=3	=3	=3	=3	=3	=3	=3
2E-^^>\	2ee- 2e-^>^/	.	1r	.	.	.	.
4E- 4EE-^^>/	4e- 4B- 4G^^>/	.	.	.	.	.	.
8.BB-L 8.BBB-/	8.fL 8.d- 8.A-/	.	.	.	.	.	.
16BB-Jk 16BBB-/	16fJk 16d- 16A-/	.	.	.	.	.	.
=4	=4	=4	=4	=4	=4	=4	=4
4E- 4EE-/	4g 4d- 4G/	.	2r	.	.	.	.
4E- 4EE-/	4f 4d- 4A-/	.	.	.	.	.	.
4E- 4EE-/	4e- 4d- 4G/	.	4r	.	.	.	.
8C/L	8c/L	.	8c/	1. Ma-	2. Pa-	3. Aux	.
8E-/J	8e-/J	.	8e-/	-jes-	-ris	plus	.
=5	=5	=5	=5	=5	=5	=5	=5
*	*^	*	*	*	*	*	*
2C 2CC/	4.a-/	2e- 2A-\	.	(<4.a-/	-té	vous	hum-	.
.	8b-/	.	.	8b-/)	.	.	.	.
4BB- 4BBB-/	4g 4d- 4B-/	2ryy	.	4g/	les	a	-bles	.
4AA- 4AAA-/	4a- 4e- 4c/	.	.	4a-/	Fran,-	re-	au-	.
!!LO:LB:g=original
*	*v	*v	*	*	*	*	*	*
=6	=6	=6	=6	=6	=6	=6	=6
4GG 4GGG/	4b- 4e- 4B-/	.	(>4b-\	-çais	-çu.	-tel	.
4EE- 4EEE-/	8ccL 8g 8e- 8c/	.	8cc\L	.	.	.	.
.	8dd-J 8d-/	.	8dd-\J)	.	.	.	.
4AA- 4AAA-/	4cc 4a- 4e- 4c/	.	(>4cc\	ha-	La	des	.
8E-L 8EE-/	4b- 4g 4e- 4B-/	.	4b-\)	-bi-	.	è-	.
8D-J 8DD-/	.	.	.	.	.	.	.
=7	=7	=7	=7	=7	=7	=7	=7
*	*^	*	*	*	*	*	*
2C 2CC/	4.ee- 4.a- 4.e-/	2ryy	.	(>4.ee-\	-tant	vil-	-gli-	.
.	8cc 8c/	.	.	8cc\)	vo-	-le	.	.
4D- 4DD-/	4b- 4f 4B-/	4ryy	.	4b-\	-tre	sans	-ses	.
4E- 4EE-/	8a-L 8f/	4d-\	.	(<8a-/L	Em-	pa-	de	.
.	8b-J 8g/	.	.	8b-/J)	.	.	.	.
*	*v	*v	*	*	*	*	*	*
=8	=8	=8	=8	=8	=8	=8	=8
2AA- 2AAA-/	4dd- 4a- 4f 4d-/	.	4dd-\	-pi-	-reil-	Fran-	.
.	4cc 4a- 4e- 4c/	.	4cc\	-re	-les,	-ce	.
4C 4CC/	4r	.	4r	.	.	.	.
4F 4FF/	4a- 4f 4c 4A-/	.	8a-/	Et	Com-	Le	.
.	.	.	8a-/	tous	-me	chant	.
=9	=9	=9	=9	=9	=9	=9	=9
2E- 2EE-/	4.b- 4.g 4.e- 4.B-/	.	4b-\	leur	une	du	.
.	.	.	8b-\	pro-	ro	„Te	.
.	8e- 8B- 8G/	.	8e-/	-té-	yau-	De-	.
4D- 4DD-/	4f 4d- 4A-/	.	4f/	-gés,	-té	-um”	.
4BB- 4BBB-/	4g 4e- 4d- 4G/	.	8g/	in-	ri-	re-	.
.	.	.	8g/	-cli-	-che	-mer-	.
!!LO:LB:g=original
=10	=10	=10	=10	=10	=10	=10	=10
2C 2CC/	4a- 4e- 4c 4A-/	.	4a-/	-nés	d'en-	-eie	.
.	8gL 8G/	.	8g/	sous	-chan-	mant	.
.	8a-J 8A-/	.	8a-/	vos	-te-	du	.
4AA- 4AAA-/	4cc 4a- 4e- 4c/	.	4cc\	pas	-mento,	coeur	.
4C 4CC/	8gL 8e- 8G/	.	8g/	En	A	S'est	.
.	8a-J 8A-/	.	8a-/	ce	dé-	fait	.
=11	=11	=11	=11	=11	=11	=11	=11
2GG 2GGG/	4b- 4e- 4B-/	.	4b-\	jour	-plo-	en-	.
.	4e- 4B-/	.	8e-/	so-	-yé	-ten-	.
.	.	.	8e-/	-lén-	pour	-dre	.
4BB- 4BBB-/	4f 4d- 4A-/	.	4f/	-nel,	vous	com-	.
8E-L 8EE-/	4g 4e- 4B-/	.	8g/	ont	ses	-me	.
8D-J 8DD-/	.	.	8g/	a	plus	un	.
=12	=12	=12	=12	=12	=12	=12	=12
*	*^	*	*	*	*	*	*
4C 4CC/	4a- 4e- 4A-/	4ryy	.	4a-/	coeur	ra-	hymne	.
4GG 4GGG/	8b-/L	4e- 4d-\	.	8b-\	de	-res	d'es-	.
.	8dd-/J	.	.	8dd-\	Vous	mer-	-pé-	.
4AA- 4AAA-/	4cc 4a- 4e- 4c/	4ryy	.	4cc\	di-	-veil-	-ran-	.
4FF 4FFF/	4cc 4a- 4dn/	4c\	.	4cc\	-rè	-les	ce	.
!!LO:LB:g=original
*	*v	*v	*	*	*	*	*	*
=13	=13	=13	=13	=13	=13	=13	=13
2GG 2GGG/	4.b- 4.g 4.e- 4.B-/	.	(>4.b-\	Leur	Vous	Pre-	.
.	8cc 8c/	.	8cc\)	bon-	.	-sa-	.
8GL 8GG/	4b- 4e- 4B-/	.	4b-\	-heur	a	-geant	.
8F 8FF/	.	.	.	.	.	.	.
8E- 8EE-/	4ee- 4b- 4g 4e-/	.	4ee-\	de	don-	les	.
8DnJ 8DDn/	.	.	.	.	.	.	.
=14	=14	=14	=14	=14	=14	=14	=14
2C 2CC/	4.g 4.e- 4.c 4.G/	.	(<4.g/	Vous	-né	longs	.
.	8a- 8A-/	.	8a-/)	.	son	.	.
8CL 8CC/	4G/	.	4g/	voir	coeur	joures	.
8BB- 8BBB-/	.	.	.	.	.	.	.
8AA- 8AAA-/	8a-L 8e- 8c/	.	(<8a-/L	ren-	et	de	.
8GGJ 8GGG/	8b-J 8e- 8B-/	.	8b-/J)	.	.	.	.
=15	=15	=15	=15	=15	=15	=15	=15
2FF 2FFF/	2cc 2a- 2e- 2c/	.	4.cc\	-trér	ses	regne	.
.	.	.	8cc\	dans	em-	et	.
2BB- 2BBB-\	2dn 2B-< 2A-< 2Dn</	.	4.dn/	vos'	-bres-	de	.
.	.	.	8d/	E-	-se-	bon-	.
=16	=16	=16	=16	=16	=16	=16	=16
4EE- 4EEE-\	2e- 2B-< 2G< 2E-</	.	2e-/	-tats	-ments.	-heur.	.
8.BB-L 8.BBB-\	.	.	.	.	.	.	.
16BB-Jk 16BBB-\	.	.	.	.	.	.	.
4EE-/	4r	.	4r	.	.	.	.
=!|:	=!|:	=!|:	=!|:	=!|:	=!|:	=!|:	=!|:
*>B	*>B	*	*>B	*	*	*	*
!	!	!	!LO:TX:a:t=P:problem= w źródle podwójny teskt dla trzeciej zwrotki w części B [opatrzony klamrą]	!	!	!	!
8G\L	8g/L	.	8g/L	C'est	Un	{Nous	Que
8F\J	8f/J	.	8f/J	.	.	.	.
=17	=17	=17	=17	=17	=17	=17	=17
4E- 4EE-/	4e-/	.	(>4e-/	que	fa-	l'a-	le
4d- 4G 4F\	4dd- 4g 4f/	.	4dd-\)	.	.	.	.
4c 4G 4E-\	4cc 4g 4e-/	.	(>4cc\	pen-	-na-	-vous	bril-
4E- 4EE-/	4b- 4g 4d-/	.	4b-\)	.	-ti-	.	.
!!LO:PB:g=original
=18	=18	=18	=18	=18	=18	=18	=18
*	*^	*	*	*	*	*	*
4.AA- 4.AAA-/	4.cc 4.a- 4.c/	2ryy	.	4.cc\	-dant	-que,	{en-	-lant
8BB- 8BBB-/	8g 8e- 8d- 8G/	.	.	8a-/	le	un	-ton-	so-
4C 4CC/	4a- 4e- 4c 4A-/	4ryy	.	4a-/	cour	fou,	-né	-leil,
4D- 4DD-/	8gL 8e-/	4A-\	.	(<8g/L	de	mau-	ce	em-
.	8fJ 8d-/	.	.	8f/J)	.	.	.	.
*	*v	*v	*	*	*	*	*	*
=19	=19	=19	=19	=19	=19	=19	=19
2.E- 2.EE-/	4e- 4d- 4G/	.	4e-/	vo-	-dit	can-	-blè-
.	8gL 8e- 8d-/	.	8g/L	-tre	par	-ti-	-me
.	8a-J 8f 8c/	.	8a-/J	.	.	.	.
.	4b- 4g 4B-/	.	4b-\	long	tout	-que	du
4E- 4EE-/	8ccL 8g 8e-/	.	(>8cc\L	vo-	le	de	Roy-
.	8b-J 8g 8d-/	.	8b-\J)	.	.	.	.
=20	=20	=20	=20	=20	=20	=20	=20
2E- 2AA-/	4g 4d- 4B-/	.	4g/	-ya-	mon-	gra-	-au-
.	4a- 4e- 4c/	.	4a-/	-ge,	-de	-ce!	-me,
2r	8r	.	8r	.	.	.	.
.	8gL 8G/	.	8g/	Dans	O	U-	En-
.	8a- 8A-/	.	8a-/	l'â-	sa	-nis	-tou-
.	8b-J 8B-/	.	8b-\	-me	le-	à	-re
=21	=21	=21	=21	=21	=21	=21	=21
*	*	*	*^	*	*	*	*
2FF 2FFF/	4.cc 4.a- 4.f 4.c/	.	4.cc\	2ryy	de	-ver	vos	vo-
.	8a- 8A-/	.	8f/	.	nous	sur	su-	-tre
4BB- 4BBB-/	4g 4f 4d- 4G/	.	4g/	4ryy	tous,	vous	-jet	front
4AA- 4AAA-/	4a- 4f 4c 4A-/	.	8a-/	4a-\	vo-	sa	vos	d'un
.	.	.	8a-/	.	-tre	.	.	é-
!!LO:LB:g=original
=22	=22	=22	=22	=22	=22	=22	=22	=22
*	*^	*	*	*	*	*	*	*
4GG 4GGG/	4b- 4f 4d- 4B-/	4ryy	.	8b-\	4b-/	cul-	cri-	{bien-	-clat
.	.	.	.	8b-\	.	-te	-mi-	-ai-	.
4C 4CC/	8a-/L	4en 4B-\	.	8a-/	4ryy	est	-nel-	-més	sans
.	8g/J	.	.	8g/	.	res-	-le	en-	pa-
4D- 4DD-/	4f 4A-/	2ryy	.	4f/	4ryy	-té	main	-fants,	-reil,
8CL 8CC/	8a-L 8f 8A-/	.	.	8a-/L	(<8a-\	Com-	Mais	Nous	Car
8BB-J 8BBB-/	8b-J 8g 8B-/	.	.	8b-/J	8b-\)	-me	.	a	.
*	*v	*v	*	*	*	*	*	*	*
*	*	*	*v	*v	*	*	*	*
=23	=23	=23	=23	=23	=23	=23	=23
2AA- 2AAA-/	4.cc 4.f 4.c/	.	4cc\	ce-	Dieu	vous	vous
.	.	.	8cc\	-lui	fit	dit	ne
.	8f 8A-/	.	8f/	du	a-	comme	qou-
4D- 4DD-/	4g 4e- 4B- 4G/	.	4g/	Roi	-vor-	eux:	-rer-
4C 4CC/	4a- 4f 4c 4A-/	.	8a-/	ma-	-ter	„Fils	-nez,
.	.	.	8a-/	-qua-	cet	d'u-	que
=24	=24	=24	=24	=24	=24	=24	=24
4BB- 4BBB-/	4b- 4f 4d- 4B-/	.	8b-\	-ni-	at	-ne	pour
.	.	.	8b-\	-me	ten-	il-	le
4FF 4FFF/	8dd-L 8a- 8d-/	.	8dd-\	et	-tat	-lus-	bian
.	8ccJ 8c/	.	8cc\	si	im	-tre	de
4GG 4GGG/	4b- 4e- 4B-/	.	4b-\	sa-	mon-	ra-	l'hom-
4E- 4EE-/	8a-L 8f 8A-/	.	8a-/L	-ge	-de	-ce,	-me
.	8b-J 8g 8B-/	.	8b-/J	.	.	.	.
!!LO:LB:g=original
=25	=25	=25	=25	=25	=25	=25	=25
2AA- 2AAA-/	4.cc 4.a- 4.e- 4.c/	.	(>4.cc\	Qu'é-	Pour	{Que	Et
.	8dd- 8d-/	.	8dd-\)	-vo-	lais-	le	.
8A-L 8AA-\	4cc 4a- 4e- 4c/	.	4cc\	-que	-ser	Dieu	vo-
8GJ 8GG\	.	.	.	.	.	.	.
8FL 8FF/	4ee- 4cc 4a- 4e-/	.	4ee-\	le	vi-	juste	-tre
8E-J 8EE-/	.	.	.	.	.	.	.
=26	=26	=26	=26	=26	=26	=26	=26
2F 2FF/	4.a- 4.d- 4.A-/	.	(<4.a-/	grand	-vre	et	no-
.	8b- 8B-/	.	8b-/)	.	en	bon	-ble
8FL 8FF/	4a- 4d- 4A-/	.	4a-/	nom	vous	vous	creur,
8E- 8EE-/	.	.	.	.	.	.	.
8D- 8DD-/	8dd-L 8a- 8f/	.	(>8dd-\L	de	l'es-	con-	c'est
8CJ 8CC/	8ee-J 8a- 8e-/	.	8ee-\J)	.	.	.	.
=27	=27	=27	=27	=27	=27	=27	=27
2BB- 2BBB-/	2ff 2dd- 2a- 2f\	.	4.ff\	Vo-	-poir	-ser-	no-
.	.	.	8ff\	-tre	du	-ve	-tre
2E- 2EE-/	2g 2e- 2d- 2G/	.	4.g/	Ma-	gen-	aux	doux
.	.	.	8g/	-jes-	-re	Per-	so-
=28	=28	=28	=28	=28	=28	=28	=28
4AA- 4AAA-/	[>2a- [>2e- [<2c [<2A-/	.	[<2a-/	-té.	hu-	-sans!	-leil.
8.EE-/L	.	.	.	.	.	.	.
16EE-/Jk	.	.	.	.	.	.	.
8AA-/	8a-] 8e-] 8c] 8A-/]	.	8a-/]	.	-main.	.	.
8r	8r	.	8r	.	.	.	.
==:|!	==:|!	==:|!	==:|!	==:|!	==:|!	==:|!	==:|!
*-	*-	*-	*-	*-	*-	*-	*-
!!title: @{OTL};
!!!RDF**kern: > = above
!!!RDF**kern: < = below
!!!RDF**kern: | = vertical stroke
!!!RDF**kern: N = linked
!!!RDF**kern: i = editorial accidental
!!!EED: Wojciech Jakubiak-Danek
!!!EST: 2021-06-10
!!!URL-scan: http://repozytorium.nifc.pl/skany/pl-wtm-nut--r110n
!!!ONB-nifc:
!!!AIN: 1 empty 1 vox
!!!ENC: Marcin Jachim
!!!END: 2021-05-31
